X: 27086
T: Miss Kennard
R: waltz
M: 3/4
K: Cmajor
G,|:"C"C>D E GEG|"F"F>G A "C"GEC|"F"F>GA "C"GEC|1 "G"D>ED G,A,B,:|2 "G"D>ED "C"CEG||
"C"c>Bc "Em"BGE|"F"F>GA "C"G2E|"F"FF/G/A "C"GEC|"G"D>ED G,A,B,|
"C"C>D E GEG|"F"F>G A "C"GEC|"F"FF/G/A "C"GEC|"G"D>CB, "C"C2||

